packages/kaspersky-hexa-ui-icons/src/iconsSVGs/16x12/FlagMn.svg

<svg width="16" height="12" viewBox="0 0 16 12" fill="none" xmlns="http://www.w3.org/2000/svg">
<g clip-path="url(#clip0_41818_3250)">
<rect width="16" height="12" rx="2" fill="white"/>
<mask id="mask0_41818_3250" style="mask-type:luminance" maskUnits="userSpaceOnUse" x="0" y="0" width="16" height="12">
<rect width="16" height="12" rx="2" fill="white"/>
</mask>
<g mask="url(#mask0_41818_3250)">
<path fill-rule="evenodd" clip-rule="evenodd" d="M5.33337 12H10.6667V0H5.33337V12Z" fill="#146BBC"/>
<path fill-rule="evenodd" clip-rule="evenodd" d="M0 12H5.33333V0H0V12Z" fill="#E43642"/>
<path fill-rule="evenodd" clip-rule="evenodd" d="M10.6666 12H16V0H10.6666V12Z" fill="#E43642"/>
<path d="M2.28577 9.59961H1.52405V7.2002H2.28577V9.59961ZM2.66663 9.59961L2.28577 8.7998H3.04749L2.66663 9.59961ZM3.8092 9.59961H3.04749V7.2002H3.8092V9.59961ZM2.66663 8C2.87702 8 3.04749 8.17948 3.04749 8.40039C3.04728 8.62112 2.8769 8.7998 2.66663 8.7998C2.45636 8.7998 2.28597 8.62112 2.28577 8.40039C2.28577 8.17948 2.45623 8 2.66663 8ZM2.66663 8L2.28577 7.2002H3.04749L2.66663 8ZM2.66663 6.40039C2.87696 6.40039 3.04738 6.57898 3.04749 6.7998C3.04749 7.02072 2.87702 7.2002 2.66663 7.2002C2.45623 7.2002 2.28577 7.02072 2.28577 6.7998C2.28587 6.57898 2.45629 6.40039 2.66663 6.40039ZM3.04749 6.40039H2.28577L2.66663 6L3.04749 6.40039Z" fill="url(#paint0_linear_41818_3250)"/>
</g>
</g>
<defs>
<linearGradient id="paint0_linear_41818_3250" x1="1.52405" y1="6" x2="1.52405" y2="9.59961" gradientUnits="userSpaceOnUse">
<stop stop-color="#F8D246"/>
<stop offset="1" stop-color="#F9CE2F"/>
</linearGradient>
<clipPath id="clip0_41818_3250">
<rect width="16" height="12" fill="white"/>
</clipPath>
</defs>
</svg>

<svg xmlns="http://www.w3.org/2000/svg" width="16" height="12" fill="none" viewBox="0 0 16 12"><g clip-path="url(#a)"><rect width="16" height="12" fill="#fff" rx="2"/><mask id="b" width="16" height="12" x="0" y="0" maskUnits="userSpaceOnUse" style="mask-type:luminance"><rect width="16" height="12" fill="#fff" rx="2"/></mask><g mask="url(#b)"><path fill="#146bbc" fill-rule="evenodd" d="M5.3334 12h5.3333V0H5.3334z" clip-rule="evenodd"/><path fill="#e43642" fill-rule="evenodd" d="M0 12h5.333V0H0zm10.667 0H16V0h-5.333z" clip-rule="evenodd"/><path fill="url(#c)" d="M2.2858 9.5996H1.524V7.2002h.7618zm.3808 0-.3808-.7998h.7617zm1.1426 0h-.7617V7.2002h.7617zM2.6666 8c.2104 0 .3809.1795.3809.4004-.0002.2207-.1706.3994-.3809.3994-.2102 0-.3806-.1787-.3808-.3994 0-.221.1704-.4004.3808-.4004m0 0-.3808-.7998h.7617zm0-1.5996c.2104 0 .3808.1786.3809.3994 0 .221-.1705.4004-.3809.4004s-.3808-.1795-.3808-.4004.1705-.3994.3808-.3994m.3809 0h-.7617L2.6666 6z"/></g></g><defs><linearGradient id="c" x1="2" x2="2" y1="6" y2="10" gradientUnits="userSpaceOnUse"><stop stop-color="#f8d246"/><stop offset="1" stop-color="#f9ce2f"/></linearGradient><clipPath id="a"><path fill="#fff" d="M0 0h16v12H0z"/></clipPath></defs></svg>
